icon/gr/in-progress.svg

<svg xmlns="http://www.w3.org/2000/svg" width="24" height="24"><path fill="none" stroke="#000" stroke-width="2" d="M1 1h22M10 4.5h4V6c0 1-2 2-2 2s-2-1-2-2V4.5ZM5 1v5c0 3 5 3.235 5 6s-5 3-5 6v5M19 1v5c0 3-5 3.235-5 6s5 3 5 6v5M1 23h22M8 21c0-2 4-4 4-4s4 2 4 4v2H8v-2Z"/></svg>

<svg xmlns="http://www.w3.org/2000/svg" viewBox="0 0 24 24" height="1em" width="1em">
  <path fill="none" stroke="#000" stroke-width="2" d="M1,1 L23,1 M10,4.5 L14,4.5 C14,4.5 14,6 14,6 C14,7 12,8 12,8 C12,8 10,7 10,6 C10,6 10,4.5 10,4.5 Z M5,1 C5,1 5,3 5,6 C5,9 10,9.23530084 10,12 C10,14.7646992 5.00000001,15 5,18 C4.99999999,21 5,23 5,23 M19,1 C19,1 19,3 19,6 C19,9 14,9.23530084 14,12 C14,14.7646992 19,15 19,18 C19,21 19,23 19,23 M1,23 L23,23 M8,21 C8,19 12,17 12,17 C12,17 16,19 16,21 C16,21 16,23 16,23 L8,23 L8,21 Z"/>
</svg>
